X: 988
T: Little House Under the Hill, The
T: An Teac Beag Faoi An Cnoc
R:double jig
C:"collected by F.O'Neill"
S:988 O'Neill's Music of Ireland
B:O'Neill's 988
Z:Transcribed by Robert Thorpe (thorpe@skep.com)
Z:ABCMUS 1.0
M:6/8
K:D
B|AGF AGF|AGF A2B|AGF AGF|GEF G2 B|
|AGF AGF|AGF ABc|dcB AGF|GEF G2:|
B|AFF DFF|AFF A2 B|AFF DFF|GEF G2 B|
|AFF DFF|AFG ABc|dB/-c/-d AGF|GEF G2:|
A|dFF AFF|dFF A2 c|dFF AFF|GEF G2 A|
|dFF AFF|dFF ABc|dB/-c/-d/-B/ AGF|GEF G2:|


